X:6015
T:Floral Dance
T:Helston Furry Dance
R:March
C:Katie Moss 1911, after Trad.
O:England, Helston
Z:Paul Hardy's Session Tunebook 2015 (see www.paulhardy.net). Creative Commons cc by-nc-sa licenced.
M:2/2
L:1/8
Q:1/2=100
K:G
"G"G4 B3c|d2d2 "D7"d2ef|"G"g2d2 "D7"dedc|"G"B2G2 G2D2|"G"G2GA B2Bc|d2d2 "D7"d2ef|g2d2 "D7"dedc|"G"B2G2 "G7"G4||
"C"c2e2 e2dc|"G"B2d2 d4|"D7"A2c2 c2BA|"G"BABc "G7"d4|"C"c2e2 e2dc|"G"B2d2 "D7"d2ef|"G"g2d2 "D7"dedc|"G"B2G2 G4|]

